X: 428
T: Bitmesin İçimdeki Bu Fırtına
C: Ömer Dilek
O: Turkey
F: http://compmusic.upf.edu/node/140
N: acemasiran--sarki--semai--bitmesin_icimdeki--omer_dilek
N: makam= acemasiran
N: form= sarki
N: usul= semai = 3/4
M: 3/4
L: 1/16
K: C _B   
Q: 1/4=132
%%MIDI tuningsystem comma53
f2g2 a2b2 a2g2  | f12  | f2e2 d2c2 d2e2  | f12  | \
w:  ARANAĞME  |   |   |   | 
f2g2 a2b2 a2g2  | f12  | 
w:   |   | 
e2d2 c2B2 A2G2  | F12  | c2_3/4d2 c4 _2/4B4  | \
w:   |   |   | 
c2_3/4d2 c4 _2/4B4  | c2_2/4B2 A2G2 ^F2^E2  | 
w:   |   | 
^F3G A2_1/4B2 c4  | d4 e4 f4  | e2d2 c2B2 A2G2  | F12  | F12  | \
w:   |   |   |   |   | 
f2g2 a2b2 a2g2  | 
w:  ARANAĞME  | 
f12  | f2e2 d2c2 d2e2  | f12  | f2g2 a2b2 a2g2  | f12  | \
w:   |   |   |   |   | 
e2d2 c2B2 A2G2  | 
w:   | 
F12  | c2_3/4d2 c4 _2/4B4  | c2_3/4d2 c4 _2/4B4  | \
w:   |   |   | 
c2_2/4B2 A2G2 ^F2^E2  | ^F3G A2_1/4B2 c4  | \
w:   |   | 
d4 e4 f4  | 
w:   | 
e2d2 c2B2 A2G2  | F12  | F12  | f8 a4  | g8 f4  | \
w:   |   |   |  Bit me  |  sin   | 
e4 f4 e4  | d8 z4  | c4 d4 e4  | c8 z4  | 
w:  i çim de  |  ki   |  bu  fır tı  |  na   | 
a4 g4 f2e2  | {g}f12  | f2e2 d2c2 B2A2  | \
w:  bu  öz  |  *  lem    |  SAZ  | 
A2B2 c2d2 e2f2  | e2d2 c2B2 A2G2  | 
w:   |   | 
F12  | f8 a4  | g8 f4  | e4 f4 e4  | d8 z4  | \
w:   |  Bit me  |  sin   |  i çim de  |  ki   | 
c4 d4 e4  | c8 z4  | a4 g4 f2e2  | {g}f12  | \
w:  bu  fır tı  |  na   |  bu  öz  |  *  lem    | 
f2e2 d2c2 B2A2  | 
w:  SAZ  | 
A2B2 c2d2 e2f2  | g2f2 e2d2 e2g2  | f12  | \
w:   |  SAZ  |   | 
e4 f8  | g4 f4 e4  | d12  | c12  | c8 d4  | 
w:  Ha yat   |  be nim_ i  |  çin   |   |  dert le  | 
c4 B4 A4  | ^G4 z4 B2A2  | A12  | d4 c4 B4  | \
w:  riy *  le   |  de  gü  |  zel    |  dert *  le  | 
A4 G4 F4  | E4 z4 G2F2  | F12  | f2e2 d2c2 B2A2  | 
w:  riy *  le   |  de  gü  |  zel    |  SAZ  | 
A2B2 c2d2 e2f2  | g2f2 e2d2 e2g2  | f12  | \
w:   |  SAZ  |   | 
e4 f8  | g4 f4 e4  | d12  | c12  | c8 d4  | 
w:  Ha yat   |  be nim_ i  |  çin   |   |  dert le  | 
c4 B4 A4  | ^G4 z4 B2A2  | A12  | d4 c4 B4  | \
w:  riy *  le   |  de  gü  |  zel    |  dert *  le  | 
A4 G4 F4  | E4 z4 G2F2  | F12  | f2e2 d2c2 B2A2  | 
w:  riy *  le   |  de  gü  |  zel    |  SAZ  | 
A2B2 c2d2 e2f2  | e2_7/8d2 c2_1/4B2 A2B2  | c12  | \
w:   |  SAZ  |   | 
c4 c4 c4  | _7/8d8 c4  | _7/8d2c2 _1/4B2A2 {e}d2c2  | 
w:  Ya şa mak   |  bir   |  baş *  *  *  *  ka   | 
c12  | c4 _7/8d4 c2_1/4B2  | A8 z4  | A4 A2G2 ^F2^E2  | ^F12  | \
w:  zevk   |  i çim de  |  ki   |  coş kun   |  sel    | 
c2_7/8d2 c2_1/4B2 A2B2  | c12  | c4 c4 c4  | 
w:  SAZ  |   |  Ya şa mak   | 
_7/8d8 c4  | _7/8d2c2 _1/4B2A2 {e}d2c2  | c12  | \
w:  bir   |  baş *  *  *  *  ka   |  zevk   | 
c4 d4 e4  | f12  | a4 g4 f2e2  | f12  | f2e2 d2c2 B2A2  | 
w:  i çim de  |  ki   |  coş kun   |  sel    |  SAZ  | 
A2B2 c2d2 e2f2  | g2f2 e2d2 e2g2  | f12  | \
w:   |   |   | 
e4 f8  | g4 f4 e4  | d12  | c12  | c8 d4  | 
w:  Ha yat   |  be nim_ i  |  çin   |   |  dert le  | 
c4 B4 A4  | ^G4 z4 B2A2  | A12  | d4 c4 B4  | \
w:  riy *  le   |  de  gü  |  zel    |  dert *  le  | 
A4 G4 F4  | E4 z4 G2F2  | F12  | |


